build/logo/ETCDSolid.svg

<svg xmlns="http://www.w3.org/2000/svg" fill="none" viewBox="0 0 24 24" focusable="false"><path d="M0 0H24V24H0z"/><path fill="#74767B" fill-rule="evenodd" d="M14.7123 3.54722L13.8337 5.30398L13.5591 5.10451C12.6304 4.4297 11.3727 4.4297 10.4439 5.10451L10.1775 5.29801L9.30193 3.54722C8.92464 2.79285 7.95568 2.56532 7.28206 3.07293L5.24903 4.60493C4.57542 5.11253 4.52704 6.10667 5.1482 6.67728L6.53091 7.94745L6.14947 8.22458C5.22068 8.89939 4.83204 10.0955 5.1868 11.1873L5.27837 11.4691L3.53023 11.7015C2.69412 11.8126 2.16353 12.6547 2.42417 13.4569L3.21081 15.8779C3.47146 16.6801 4.39569 17.0495 5.13743 16.648L6.68828 15.8084L6.82712 16.2357C7.18189 17.3276 8.19937 18.0668 9.34742 18.0668L9.81664 18.0668L9.48685 19.8586C9.33417 20.6881 9.97109 21.453 10.8145 21.453L13.3602 21.453C14.2036 21.453 14.8406 20.6881 14.6879 19.8586L14.3581 18.0668L14.6556 18.0668C15.8037 18.0668 16.8211 17.3276 17.1759 16.2357L17.3129 15.814L18.8534 16.648C19.5951 17.0495 20.5193 16.6801 20.78 15.8779L21.5666 13.4569C21.8273 12.6547 21.2967 11.8126 20.4606 11.7015L18.7242 11.4707L18.8162 11.1873C19.171 10.0955 18.7824 8.89939 17.8536 8.22458L17.4784 7.95199L18.866 6.67728C19.4872 6.10667 19.4388 5.11253 18.7652 4.60493L16.7322 3.07293C16.0586 2.56532 15.0896 2.79285 14.7123 3.54722ZM8.2998 11.494C8.2998 10.7225 8.92531 10.0969 9.69691 10.0969C10.4685 10.0969 11.094 10.7224 11.094 11.494C11.094 12.2656 10.4685 12.8912 9.69691 12.8912C8.92531 12.8912 8.2998 12.2656 8.2998 11.494ZM12.9072 11.494C12.9072 10.7225 13.5327 10.0969 14.3043 10.0969C15.0759 10.0969 15.7014 10.7224 15.7014 11.494C15.7014 12.2656 15.0759 12.8912 14.3043 12.8912C13.5327 12.8912 12.9072 12.2656 12.9072 11.494Z"/></svg>

<svg xmlns="http://www.w3.org/2000/svg" fill="none" viewBox="0 0 24 24" focusable="false"><path fill="#74767B" fill-rule="evenodd" d="m14.71 3.54-.88 1.76-.28-.2c-.92-.68-2.18-.68-3.11 0l-.27.19-.87-1.75c-.38-.75-1.35-.98-2.02-.47L5.24 4.6c-.67.51-.72 1.5-.1 2.07l1.39 1.27-.39.28c-.92.67-1.31 1.87-.96 2.96l.09.28-1.74.24c-.84.11-1.37.95-1.11 1.75l.79 2.42a1.34 1.34 0 0 0 1.92.77l1.55-.84.14.43a2.65 2.65 0 0 0 2.52 1.83h.47l-.33 1.79c-.15.83.49 1.6 1.33 1.6h2.55c.84 0 1.48-.77 1.32-1.6l-.33-1.79h.3c1.15 0 2.17-.74 2.52-1.83l.14-.42 1.54.83c.74.4 1.66.04 1.92-.77l.79-2.42c.26-.8-.27-1.64-1.1-1.75l-1.74-.23.09-.29c.36-1.09-.03-2.29-.96-2.96l-.38-.27 1.39-1.28c.62-.57.57-1.56-.1-2.07l-2.03-1.53c-.68-.51-1.65-.28-2.02.47m-6.42 7.95c0-.77.63-1.4 1.4-1.4s1.4.63 1.4 1.4-.63 1.4-1.4 1.4-1.4-.63-1.4-1.4m4.61 0c0-.77.63-1.4 1.4-1.4s1.4.63 1.4 1.4-.63 1.4-1.4 1.4-1.4-.63-1.4-1.4"/></svg>
